X:1
T:Dull Sir John
C:John Playford, The English Dancing Master, 1651
N:arr. Dave Lankford. Matches Pile 2018
P:AABB x 3
M:6/8
L:1/8
K:D minor
P:A
"Gm"G2^F G2A | B3/A/B "F"cAF | "Bb"B2A B2c | d3 d2c | "Bb"d2c "Dm"d2e | "F"f3/g/f F2B | "Dm"A2B "F"c3/d/c | "Bb"B3 B3 ::
P:B
"Bb"d2c d2e | f3/g/f F2B | "Dm"A2B "C"c3/d/=B | "F"c3 c2f | "Gm"d3/c/d "Am"c2A | "Bb"Bb2 "F"a2d | "Dm"d2g "Gm"g3/a/^f | g6 :|

